bernoullicharts/pow_x_5_1__bits.svg

<?xml version="1.0" encoding="utf-8" standalone="no"?>
<!DOCTYPE svg PUBLIC "-//W3C//DTD SVG 1.1//EN"
  "http://www.w3.org/Graphics/SVG/1.1/DTD/svg11.dtd">
<!-- Created with matplotlib (https://matplotlib.org/) -->
<svg height="345.6pt" version="1.1" viewBox="0 0 460.8 345.6" width="460.8pt" xmlns="http://www.w3.org/2000/svg" xmlns:xlink="http://www.w3.org/1999/xlink">
 <defs>
  <style type="text/css">
*{stroke-linecap:butt;stroke-linejoin:round;}
  </style>
 </defs>
 <g id="figure_1">
  <g id="patch_1">
   <path d="M 0 345.6 
L 460.8 345.6 
L 460.8 0 
L 0 0 
z
" style="fill:#ffffff;"/>
  </g>
  <g id="axes_1">
   <g id="patch_2">
    <path d="M 57.6 307.584 
L 414.72 307.584 
L 414.72 41.472 
L 57.6 41.472 
z
" style="fill:#ffffff;"/>
   </g>
   <g id="matplotlib.axis_1">
    <g id="xtick_1">
     <g id="line2d_1">
      <defs>
       <path d="M 0 0 
L 0 3.5 
" id="m5a5c2b8762" style="stroke:#000000;stroke-width:0.8;"/>
      </defs>
      <g>
       <use style="stroke:#000000;stroke-width:0.8;" x="73.800255" xlink:href="#m5a5c2b8762" y="307.584"/>
      </g>
     </g>
     <g id="text_1">
      <text style="font-family:DejaVu Sans;font-size:10px;font-style:normal;font-weight:normal;text-anchor:middle;" transform="rotate(-0, 73.800255, 322.182437)" x="73.800255" y="322.182437">0.0</text>
     </g>
    </g>
    <g id="xtick_2">
     <g id="line2d_2">
      <g>
       <use style="stroke:#000000;stroke-width:0.8;" x="138.744153" xlink:href="#m5a5c2b8762" y="307.584"/>
      </g>
     </g>
     <g id="text_2">
      <text style="font-family:DejaVu Sans;font-size:10px;font-style:normal;font-weight:normal;text-anchor:middle;" transform="rotate(-0, 138.744153, 322.182437)" x="138.744153" y="322.182437">0.2</text>
     </g>
    </g>
    <g id="xtick_3">
     <g id="line2d_3">
      <g>
       <use style="stroke:#000000;stroke-width:0.8;" x="203.688051" xlink:href="#m5a5c2b8762" y="307.584"/>
      </g>
     </g>
     <g id="text_3">
      <text style="font-family:DejaVu Sans;font-size:10px;font-style:normal;font-weight:normal;text-anchor:middle;" transform="rotate(-0, 203.688051, 322.182437)" x="203.688051" y="322.182437">0.4</text>
     </g>
    </g>
    <g id="xtick_4">
     <g id="line2d_4">
      <g>
       <use style="stroke:#000000;stroke-width:0.8;" x="268.631949" xlink:href="#m5a5c2b8762" y="307.584"/>
      </g>
     </g>
     <g id="text_4">
      <text style="font-family:DejaVu Sans;font-size:10px;font-style:normal;font-weight:normal;text-anchor:middle;" transform="rotate(-0, 268.631949, 322.182437)" x="268.631949" y="322.182437">0.6</text>
     </g>
    </g>
    <g id="xtick_5">
     <g id="line2d_5">
      <g>
       <use style="stroke:#000000;stroke-width:0.8;" x="333.575847" xlink:href="#m5a5c2b8762" y="307.584"/>
      </g>
     </g>
     <g id="text_5">
      <text style="font-family:DejaVu Sans;font-size:10px;font-style:normal;font-weight:normal;text-anchor:middle;" transform="rotate(-0, 333.575847, 322.182437)" x="333.575847" y="322.182437">0.8</text>
     </g>
    </g>
    <g id="xtick_6">
     <g id="line2d_6">
      <g>
       <use style="stroke:#000000;stroke-width:0.8;" x="398.519745" xlink:href="#m5a5c2b8762" y="307.584"/>
      </g>
     </g>
     <g id="text_6">
      <text style="font-family:DejaVu Sans;font-size:10px;font-style:normal;font-weight:normal;text-anchor:middle;" transform="rotate(-0, 398.519745, 322.182437)" x="398.519745" y="322.182437">1.0</text>
     </g>
    </g>
    <g id="text_7">
     <text style="font-family:DejaVu Sans;font-size:10px;font-style:normal;font-weight:normal;text-anchor:middle;" transform="rotate(-0, 236.16, 335.860562)" x="236.16" y="335.860562">Probability</text>
    </g>
   </g>
   <g id="matplotlib.axis_2">
    <g id="ytick_1">
     <g id="line2d_7">
      <defs>
       <path d="M 0 0 
L -3.5 0 
" id="m50405f80d4" style="stroke:#000000;stroke-width:0.8;"/>
      </defs>
      <g>
       <use style="stroke:#000000;stroke-width:0.8;" x="57.6" xlink:href="#m50405f80d4" y="295.728477"/>
      </g>
     </g>
     <g id="text_8">
      <text style="font-family:DejaVu Sans;font-size:10px;font-style:normal;font-weight:normal;text-anchor:end;" transform="rotate(-0, 50.6, 299.527696)" x="50.6" y="299.527696">2</text>
     </g>
    </g>
    <g id="ytick_2">
     <g id="line2d_8">
      <g>
       <use style="stroke:#000000;stroke-width:0.8;" x="57.6" xlink:href="#m50405f80d4" y="265.668835"/>
      </g>
     </g>
     <g id="text_9">
      <text style="font-family:DejaVu Sans;font-size:10px;font-style:normal;font-weight:normal;text-anchor:end;" transform="rotate(-0, 50.6, 269.468054)" x="50.6" y="269.468054">3</text>
     </g>
    </g>
    <g id="ytick_3">
     <g id="line2d_9">
      <g>
       <use style="stroke:#000000;stroke-width:0.8;" x="57.6" xlink:href="#m50405f80d4" y="235.609193"/>
      </g>
     </g>
     <g id="text_10">
      <text style="font-family:DejaVu Sans;font-size:10px;font-style:normal;font-weight:normal;text-anchor:end;" transform="rotate(-0, 50.6, 239.408412)" x="50.6" y="239.408412">4</text>
     </g>
    </g>
    <g id="ytick_4">
     <g id="line2d_10">
      <g>
       <use style="stroke:#000000;stroke-width:0.8;" x="57.6" xlink:href="#m50405f80d4" y="205.549551"/>
      </g>
     </g>
     <g id="text_11">
      <text style="font-family:DejaVu Sans;font-size:10px;font-style:normal;font-weight:normal;text-anchor:end;" transform="rotate(-0, 50.6, 209.348769)" x="50.6" y="209.348769">5</text>
     </g>
    </g>
    <g id="ytick_5">
     <g id="line2d_11">
      <g>
       <use style="stroke:#000000;stroke-width:0.8;" x="57.6" xlink:href="#m50405f80d4" y="175.489909"/>
      </g>
     </g>
     <g id="text_12">
      <text style="font-family:DejaVu Sans;font-size:10px;font-style:normal;font-weight:normal;text-anchor:end;" transform="rotate(-0, 50.6, 179.289127)" x="50.6" y="179.289127">6</text>
     </g>
    </g>
    <g id="ytick_6">
     <g id="line2d_12">
      <g>
       <use style="stroke:#000000;stroke-width:0.8;" x="57.6" xlink:href="#m50405f80d4" y="145.430266"/>
      </g>
     </g>
     <g id="text_13">
      <text style="font-family:DejaVu Sans;font-size:10px;font-style:normal;font-weight:normal;text-anchor:end;" transform="rotate(-0, 50.6, 149.229485)" x="50.6" y="149.229485">7</text>
     </g>
    </g>
    <g id="ytick_7">
     <g id="line2d_13">
      <g>
       <use style="stroke:#000000;stroke-width:0.8;" x="57.6" xlink:href="#m50405f80d4" y="115.370624"/>
      </g>
     </g>
     <g id="text_14">
      <text style="font-family:DejaVu Sans;font-size:10px;font-style:normal;font-weight:normal;text-anchor:end;" transform="rotate(-0, 50.6, 119.169843)" x="50.6" y="119.169843">8</text>
     </g>
    </g>
    <g id="ytick_8">
     <g id="line2d_14">
      <g>
       <use style="stroke:#000000;stroke-width:0.8;" x="57.6" xlink:href="#m50405f80d4" y="85.310982"/>
      </g>
     </g>
     <g id="text_15">
      <text style="font-family:DejaVu Sans;font-size:10px;font-style:normal;font-weight:normal;text-anchor:end;" transform="rotate(-0, 50.6, 89.110201)" x="50.6" y="89.110201">9</text>
     </g>
    </g>
    <g id="ytick_9">
     <g id="line2d_15">
      <g>
       <use style="stroke:#000000;stroke-width:0.8;" x="57.6" xlink:href="#m50405f80d4" y="55.25134"/>
      </g>
     </g>
     <g id="text_16">
      <text style="font-family:DejaVu Sans;font-size:10px;font-style:normal;font-weight:normal;text-anchor:end;" transform="rotate(-0, 50.6, 59.050559)" x="50.6" y="59.050559">10</text>
     </g>
    </g>
    <g id="text_17">
     <text style="font-family:DejaVu Sans;font-size:10px;font-style:normal;font-weight:normal;text-anchor:middle;" transform="rotate(-90, 31.795312, 174.528)" x="31.795312" y="174.528">Average Bits Consumed Per Call</text>
    </g>
   </g>
   <g id="line2d_16">
    <path clip-path="url(#pfedbfc9c69)" d="M 73.832727 295.247523 
L 77.112066 293.443944 
L 80.391405 293.383825 
L 83.670744 294.586211 
L 86.950083 295.488 
L 90.229421 293.744541 
L 93.50876 288.333805 
L 96.788099 292.361797 
L 100.067438 293.985018 
L 103.346777 288.393924 
L 106.626116 290.137384 
L 109.905455 291.820724 
L 113.184793 287.432016 
L 116.464132 282.92307 
L 119.743471 285.267722 
L 123.02281 287.0713 
L 126.302149 284.125455 
L 129.581488 285.027245 
L 132.860826 282.381996 
L 136.140165 282.682592 
L 139.419504 274.626608 
L 142.698843 278.173646 
L 145.978182 279.917105 
L 149.257521 275.828994 
L 152.53686 277.993288 
L 155.816198 278.414123 
L 159.095537 271.740883 
L 162.374876 272.402195 
L 165.654215 274.44625 
L 168.933554 275.768875 
L 172.212893 267.472414 
L 175.492231 277.091499 
L 178.77157 266.149789 
L 182.050909 269.636708 
L 185.330248 266.330147 
L 188.609587 266.08967 
L 191.888926 262.963467 
L 195.168264 264.526569 
L 198.447603 261.640843 
L 201.726942 259.35631 
L 205.006281 263.264064 
L 208.28562 260.19798 
L 211.564959 247.272334 
L 214.844298 250.578895 
L 218.123636 249.797344 
L 221.402975 250.518775 
L 224.682314 247.452692 
L 227.961653 249.075913 
L 231.240992 242.222314 
L 234.520331 235.128239 
L 237.799669 237.773487 
L 241.079008 236.330624 
L 244.358347 238.555038 
L 247.637686 228.996072 
L 250.917025 227.493089 
L 254.196364 231.100247 
L 257.475702 230.318696 
L 260.755041 214.80792 
L 264.03438 220.75973 
L 267.313719 219.85794 
L 270.593058 217.934123 
L 273.872397 211.982314 
L 277.151736 206.45134 
L 280.431074 208.13468 
L 283.710413 200.078696 
L 286.989752 203.866211 
L 290.269091 195.810227 
L 293.54843 200.920366 
L 296.827769 198.395356 
L 300.107107 199.176907 
L 303.386446 183.906608 
L 306.665785 178.555992 
L 309.945124 173.926807 
L 313.224463 178.195276 
L 316.503802 170.620247 
L 319.78314 167.433924 
L 323.062479 165.510107 
L 326.341818 163.345813 
L 329.621157 158.355913 
L 332.900496 147.173726 
L 336.179835 157.394004 
L 339.459174 146.031459 
L 342.738512 139.658815 
L 346.017851 136.111777 
L 349.29719 129.618895 
L 352.576529 132.50462 
L 355.855868 122.103984 
L 359.135207 122.4647 
L 362.414545 120.360525 
L 365.693884 104.00808 
L 368.973223 101.182473 
L 372.252562 101.182473 
L 375.531901 94.569352 
L 378.81124 85.130624 
L 382.090579 85.130624 
L 385.369917 78.457384 
L 388.649256 71.483547 
L 391.928595 62.225177 
L 395.207934 65.29126 
L 398.487273 53.568 
" style="fill:none;stroke:#1f77b4;stroke-linecap:square;stroke-width:1.5;"/>
   </g>
   <g id="patch_3">
    <path d="M 57.6 307.584 
L 57.6 41.472 
" style="fill:none;stroke:#000000;stroke-linecap:square;stroke-linejoin:miter;stroke-width:0.8;"/>
   </g>
   <g id="patch_4">
    <path d="M 414.72 307.584 
L 414.72 41.472 
" style="fill:none;stroke:#000000;stroke-linecap:square;stroke-linejoin:miter;stroke-width:0.8;"/>
   </g>
   <g id="patch_5">
    <path d="M 57.6 307.584 
L 414.72 307.584 
" style="fill:none;stroke:#000000;stroke-linecap:square;stroke-linejoin:miter;stroke-width:0.8;"/>
   </g>
   <g id="patch_6">
    <path d="M 57.6 41.472 
L 414.72 41.472 
" style="fill:none;stroke:#000000;stroke-linecap:square;stroke-linejoin:miter;stroke-width:0.8;"/>
   </g>
   <g id="text_18">
    <text style="font-family:DejaVu Sans;font-size:12px;font-style:normal;font-weight:normal;text-anchor:middle;" transform="rotate(-0, 236.16, 35.472)" x="236.16" y="35.472">Avg. Bits Consumed by pow(x,5/1) Algorithm</text>
   </g>
   <g id="legend_1">
    <g id="patch_7">
     <path d="M 64.6 64.150125 
L 150.239062 64.150125 
Q 152.239062 64.150125 152.239062 62.150125 
L 152.239062 48.472 
Q 152.239062 46.472 150.239062 46.472 
L 64.6 46.472 
Q 62.6 46.472 62.6 48.472 
L 62.6 62.150125 
Q 62.6 64.150125 64.6 64.150125 
z
" style="fill:#ffffff;opacity:0.8;stroke:#cccccc;stroke-linejoin:miter;"/>
    </g>
    <g id="line2d_17">
     <path d="M 66.6 54.570438 
L 86.6 54.570438 
" style="fill:none;stroke:#1f77b4;stroke-linecap:square;stroke-width:1.5;"/>
    </g>
    <g id="line2d_18"/>
    <g id="text_19">
     <text style="font-family:DejaVu Sans;font-size:10px;font-style:normal;font-weight:normal;text-anchor:start;" transform="rotate(-0, 94.6, 58.070438)" x="94.6" y="58.070438">pow(x,5/1)</text>
    </g>
   </g>
  </g>
 </g>
 <defs>
  <clipPath id="pfedbfc9c69">
   <rect height="266.112" width="357.12" x="57.6" y="41.472"/>
  </clipPath>
 </defs>
</svg>

<svg height="460.8" viewBox="0 0 460.8 345.6" width="614.4" xmlns="http://www.w3.org/2000/svg" xmlns:xlink="http://www.w3.org/1999/xlink"><defs><style>*{stroke-linecap:butt;stroke-linejoin:round}</style></defs><g id="figure_1"><path d="M0 345.6h460.8V0H0z" fill="#fff" id="patch_1"/><g id="axes_1"><path d="M57.6 307.584h357.12V41.472H57.6z" fill="#fff" id="patch_2"/><g id="matplotlib.axis_1"><g id="xtick_1"><g id="line2d_1"><defs><path d="M0 0v3.5" id="m5a5c2b8762" stroke="#000" stroke-width=".8"/></defs><use x="73.8" xlink:href="#m5a5c2b8762" y="307.584" stroke="#000" stroke-width=".8"/></g><text x="73.8" y="322.182" font-family="DejaVu Sans" font-size="10" font-weight="400" text-anchor="middle" id="text_1">0.0</text></g><g id="xtick_2"><use x="138.744" xlink:href="#m5a5c2b8762" y="307.584" stroke="#000" stroke-width=".8" id="line2d_2"/><text x="138.744" y="322.182" font-family="DejaVu Sans" font-size="10" font-weight="400" text-anchor="middle" id="text_2">0.2</text></g><g id="xtick_3"><use x="203.688" xlink:href="#m5a5c2b8762" y="307.584" stroke="#000" stroke-width=".8" id="line2d_3"/><text x="203.688" y="322.182" font-family="DejaVu Sans" font-size="10" font-weight="400" text-anchor="middle" id="text_3">0.4</text></g><g id="xtick_4"><use x="268.632" xlink:href="#m5a5c2b8762" y="307.584" stroke="#000" stroke-width=".8" id="line2d_4"/><text x="268.632" y="322.182" font-family="DejaVu Sans" font-size="10" font-weight="400" text-anchor="middle" id="text_4">0.6</text></g><g id="xtick_5"><use x="333.576" xlink:href="#m5a5c2b8762" y="307.584" stroke="#000" stroke-width=".8" id="line2d_5"/><text x="333.576" y="322.182" font-family="DejaVu Sans" font-size="10" font-weight="400" text-anchor="middle" id="text_5">0.8</text></g><g id="xtick_6"><use x="398.52" xlink:href="#m5a5c2b8762" y="307.584" stroke="#000" stroke-width=".8" id="line2d_6"/><text x="398.52" y="322.182" font-family="DejaVu Sans" font-size="10" font-weight="400" text-anchor="middle" id="text_6">1.0</text></g><text x="236.16" y="335.861" font-family="DejaVu Sans" font-size="10" font-weight="400" text-anchor="middle" id="text_7">Probability</text></g><g id="matplotlib.axis_2"><g id="ytick_1"><g id="line2d_7"><defs><path d="M0 0h-3.5" id="m50405f80d4" stroke="#000" stroke-width=".8"/></defs><use x="57.6" xlink:href="#m50405f80d4" y="295.728" stroke="#000" stroke-width=".8"/></g><text x="50.6" y="299.528" font-family="DejaVu Sans" font-size="10" font-weight="400" text-anchor="end" id="text_8">2</text></g><g id="ytick_2"><use x="57.6" xlink:href="#m50405f80d4" y="265.669" stroke="#000" stroke-width=".8" id="line2d_8"/><text x="50.6" y="269.468" font-family="DejaVu Sans" font-size="10" font-weight="400" text-anchor="end" id="text_9">3</text></g><g id="ytick_3"><use x="57.6" xlink:href="#m50405f80d4" y="235.609" stroke="#000" stroke-width=".8" id="line2d_9"/><text x="50.6" y="239.408" font-family="DejaVu Sans" font-size="10" font-weight="400" text-anchor="end" id="text_10">4</text></g><g id="ytick_4"><use x="57.6" xlink:href="#m50405f80d4" y="205.55" stroke="#000" stroke-width=".8" id="line2d_10"/><text x="50.6" y="209.349" font-family="DejaVu Sans" font-size="10" font-weight="400" text-anchor="end" id="text_11">5</text></g><g id="ytick_5"><use x="57.6" xlink:href="#m50405f80d4" y="175.49" stroke="#000" stroke-width=".8" id="line2d_11"/><text x="50.6" y="179.289" font-family="DejaVu Sans" font-size="10" font-weight="400" text-anchor="end" id="text_12">6</text></g><g id="ytick_6"><use x="57.6" xlink:href="#m50405f80d4" y="145.43" stroke="#000" stroke-width=".8" id="line2d_12"/><text x="50.6" y="149.229" font-family="DejaVu Sans" font-size="10" font-weight="400" text-anchor="end" id="text_13">7</text></g><g id="ytick_7"><use x="57.6" xlink:href="#m50405f80d4" y="115.371" stroke="#000" stroke-width=".8" id="line2d_13"/><text x="50.6" y="119.17" font-family="DejaVu Sans" font-size="10" font-weight="400" text-anchor="end" id="text_14">8</text></g><g id="ytick_8"><use x="57.6" xlink:href="#m50405f80d4" y="85.311" stroke="#000" stroke-width=".8" id="line2d_14"/><text x="50.6" y="89.11" font-family="DejaVu Sans" font-size="10" font-weight="400" text-anchor="end" id="text_15">9</text></g><g id="ytick_9"><use x="57.6" xlink:href="#m50405f80d4" y="55.251" stroke="#000" stroke-width=".8" id="line2d_15"/><text x="50.6" y="59.051" font-family="DejaVu Sans" font-size="10" font-weight="400" text-anchor="end" id="text_16">10</text></g><text transform="rotate(-90 31.795 174.528)" x="31.795" y="174.528" font-family="DejaVu Sans" font-size="10" font-weight="400" text-anchor="middle" id="text_17">Average Bits Consumed Per Call</text></g><path clip-path="url(#pfedbfc9c69)" d="M73.833 295.248l3.28-1.804 3.278-.06 3.28 1.202 3.28.902 3.278-1.743 3.28-5.411 3.28 4.028 3.278 1.623 3.28-5.591 3.28 1.743 3.278 1.684 3.28-4.389 3.28-4.509 3.278 2.345 3.28 1.803 3.28-2.946 3.278.902 3.28-2.645 3.28.3 3.279-8.055 3.279 3.547 3.28 1.743 3.279-4.088 3.279 2.164 3.28.421 3.279-6.673 3.279.661 3.28 2.044 3.279 1.323 3.279-8.297 3.28 9.62 3.279-10.942 3.279 3.487 3.28-3.307 3.279-.24 3.279-3.127 3.28 1.564 3.279-2.886 3.279-2.285 3.28 3.908 3.279-3.066 3.279-12.926 3.28 3.307 3.279-.782 3.279.722 3.28-3.066 3.279 1.623 3.279-6.854 3.28-7.094 3.279 2.645 3.279-1.442 3.28 2.224 3.279-9.559 3.279-1.503 3.28 3.607 3.279-.781 3.279-15.511 3.28 5.952 3.279-.902 3.28-1.924 3.278-5.952 3.28-5.53 3.28 1.683 3.278-8.056 3.28 3.787 3.28-8.056 3.278 5.11 3.28-2.525 3.28.782 3.278-15.27 3.28-5.351 3.28-4.63 3.278 4.27 3.28-7.576 3.28-3.186 3.278-1.924 3.28-2.164 3.28-4.99 3.278-11.182 3.28 10.22 3.28-11.363 3.279-6.372 3.279-3.547 3.28-6.493 3.279 2.886 3.279-10.401 3.28.36 3.279-2.103 3.279-16.353 3.28-2.826h3.279l3.279-6.613 3.28-9.438h3.279l3.279-6.674 3.28-6.973 3.279-9.259 3.279 3.066 3.28-11.723" fill="none" stroke="#1f77b4" stroke-linecap="square" stroke-width="1.5" id="line2d_16"/><path d="M57.6 307.584V41.472" fill="none" stroke="#000" stroke-linecap="square" stroke-width=".8" id="patch_3"/><path d="M414.72 307.584V41.472" fill="none" stroke="#000" stroke-linecap="square" stroke-width=".8" id="patch_4"/><path d="M57.6 307.584h357.12" fill="none" stroke="#000" stroke-linecap="square" stroke-width=".8" id="patch_5"/><path d="M57.6 41.472h357.12" fill="none" stroke="#000" stroke-linecap="square" stroke-width=".8" id="patch_6"/><text x="236.16" y="35.472" font-family="DejaVu Sans" font-size="12" font-weight="400" text-anchor="middle" id="text_18">Avg. Bits Consumed by pow(x,5/1) Algorithm</text><g id="legend_1"><path d="M64.6 64.15h85.64q2 0 2-2V48.472q0-2-2-2H64.6q-2 0-2 2V62.15q0 2 2 2z" fill="#fff" opacity=".8" stroke="#ccc" id="patch_7"/><path d="M66.6 54.57h20" fill="none" stroke="#1f77b4" stroke-linecap="square" stroke-width="1.5" id="line2d_17"/><text x="94.6" y="58.07" font-family="DejaVu Sans" font-size="10" font-weight="400" id="text_19">pow(x,5/1)</text></g></g></g><defs><clipPath id="pfedbfc9c69"><path d="M57.6 41.472h357.12v266.112H57.6z"/></clipPath></defs></svg>
